X: 1
T: Lyndon Lewis
M: 4/4
L: 1/8
R: hornpipe
K: Gmaj
|(3ggg g>a g>ec>e|g>ca>c _b>ca>c|
(3ggg g>a g>ec>e|=f2 =f>g =f>d_B>d|
g2 g>a g>ec>e|g>ca>c _b>ca>c|
(3=fff =f>g =f>d_B>d|c>dc>_B c2c2:|
|:B2 B>c B>AG>E|G,>B,D>G B>GA>B|
 (3cdc(3BcB (3ABA (3GAG|F>GE>F D>E (3FED|
B2 B>c B>AG>E|G,>B,D>G B>GA>B|
(3cdc (3BcB A2G2|D>FA>F G2G2:|
